storage/app/icons/phosphoricons/bold/armchair-bold.svg

<svg xmlns="http://www.w3.org/2000/svg" fill="currentColor" viewBox="0 0 256 256"><path d="M220 78.53V72a44.05 44.05 0 0 0-44-44H80a44.05 44.05 0 0 0-44 44v6.53a52 52 0 0 0 0 99V200a20 20 0 0 0 20 20h144a20 20 0 0 0 20-20v-22.49a52 52 0 0 0 0-99ZM80 52h96a20 20 0 0 1 20 20v4.62A52.09 52.09 0 0 0 152.17 124h-48.34A52.09 52.09 0 0 0 60 76.62V72a20 20 0 0 1 20-20m126.81 103.86A12 12 0 0 0 196 167.8V196H60v-28.2a12 12 0 0 0-10.81-11.94A28 28 0 1 1 80 128v36a12 12 0 0 0 24 0v-16h48v16a12 12 0 0 0 24 0v-36a28 28 0 1 1 30.81 27.86"/></svg>

<svg xmlns="http://www.w3.org/2000/svg" viewBox="0 0 256 256" fill="currentColor"><path d="M220,78.53V72a44.05,44.05,0,0,0-44-44H80A44.05,44.05,0,0,0,36,72v6.53a52,52,0,0,0,0,99V200a20,20,0,0,0,20,20H200a20,20,0,0,0,20-20V177.51a52,52,0,0,0,0-99ZM80,52h96a20,20,0,0,1,20,20v4.62A52.09,52.09,0,0,0,152.17,124H103.83A52.09,52.09,0,0,0,60,76.62V72A20,20,0,0,1,80,52ZM206.81,155.86A12,12,0,0,0,196,167.8V196H60V167.8a12,12,0,0,0-10.81-11.94A28,28,0,1,1,80,128v36a12,12,0,0,0,24,0V148h48v16a12,12,0,0,0,24,0V128a28,28,0,1,1,30.81,27.86Z"/></svg>
